X:455
T: Minzu zhengze nuanrenxin
N: C2073
O: China, Qinghai Haibei
S: I, 230]
N: Hui Han
R: Shange, Huar, Menyuanling]
M: 2/4
L: 1/16
K: A
E8 | F2ABB2BA | F3EE4 | E4F2AB | B8 | e4efB2 | BABAF2z2
E4F2AB | B6e2 | e4e4
B3EE4 | F2ABB3e | e4efB2 | B4BeBA | F2z2z4 | F3EE4
E3FB4 | BeBAF3E | E8 | E4z4

